logo/dark.svg

<svg width="1087" height="320" viewBox="0 0 1087 320" fill="none" xmlns="http://www.w3.org/2000/svg">
<path fill-rule="evenodd" clip-rule="evenodd" d="M150.79 146.686C127.963 146.686 109.447 128.181 109.447 105.343C109.447 82.5159 127.952 64 150.79 64C173.628 64 192.133 82.5159 192.133 105.343C192.133 128.17 173.617 146.686 150.79 146.686ZM192.108 213.192C192.108 207.646 191.007 202.155 188.883 197.034C186.758 191.914 183.631 187.25 179.698 183.328C175.764 179.406 171.101 176.301 165.959 174.176C160.816 172.051 155.36 171.298 149.421 170.98C140.995 170.529 131.52 169.109 123.652 166.724C115.595 164.281 108.714 158.988 102.765 153.061C96.8162 147.123 91.7843 140.166 89.0586 132.229C86.3231 124.263 85.3871 114.53 84.8094 106.2C84.2374 97.9517 82.3035 89.6827 77.6402 82.7424C72.977 75.8021 66.3526 70.398 58.6168 67.2057C50.8919 64.0024 42.3826 63.1853 34.1675 64.8196C25.9523 66.4648 18.4127 70.4961 12.4964 76.4122C6.58022 82.3284 2.55981 89.8571 0.936389 98.0612C-0.68703 106.255 0.162814 114.742 3.37697 122.456C6.59112 130.17 12.0279 136.761 19.001 141.392C25.7099 145.847 34.1842 147.945 42.5351 148.474C51.2964 149.029 60.3961 150.19 68.6406 152.68C76.6999 155.113 83.5782 160.415 89.5271 166.342C95.476 172.28 100.499 179.24 103.234 187.174C105.944 195.036 107.228 204.822 107.45 213.203C107.619 219.566 108.42 224.349 110.512 229.535C112.604 234.721 115.709 239.45 119.653 243.427C123.597 247.404 128.282 250.574 133.458 252.731C138.633 254.889 144.19 256 149.79 256C155.39 256 160.947 254.889 166.122 252.731C171.297 250.574 175.993 247.414 179.927 243.427C183.871 239.45 186.976 234.721 189.068 229.535C191.16 224.349 192.206 218.792 192.129 213.203H192.108V213.192ZM0.133301 214.657C0.133301 237.495 18.6492 256 41.4764 256C64.3036 256 82.8194 237.484 82.8194 214.657C82.8194 191.83 64.3036 173.314 41.4764 173.314C18.6492 173.314 0.133301 191.83 0.133301 214.657Z" fill="#D2C9FF" style="fill:#D2C9FF;fill:color(display-p3 0.8236 0.7889 1.0000);fill-opacity:1;"/>
<path d="M985.602 256.22V168.829C985.602 148.438 984.543 135.461 974.215 120.631H1030.09V157.441C1039.1 132.019 1054.99 118.778 1072.73 118.778C1075.38 118.778 1078.82 119.042 1081.2 119.837L1086.76 168.829H1085.17C1079.61 165.651 1071.67 163.532 1063.19 163.532C1042.27 163.532 1029.03 177.568 1029.03 208.552C1029.03 226.03 1033 244.038 1041.74 256.22H985.602Z" fill="#D2C9FF" style="fill:#D2C9FF;fill:color(display-p3 0.8236 0.7889 1.0000);fill-opacity:1;"/>
<path d="M964.272 231.065C954.208 245.895 933.023 258.606 904.952 258.606C862.845 258.606 835.569 233.713 835.569 190.282C835.569 147.381 866.023 118.251 904.952 118.251C942.027 118.251 964.801 141.29 964.801 174.393C964.801 180.749 965.331 185.251 967.185 189.753H881.647C883.766 214.116 896.742 230.005 923.224 230.005C938.849 230.005 951.031 225.239 964.272 215.44V231.065ZM904.157 139.701C892.77 139.701 883.236 149.5 881.383 173.069H926.402C926.137 150.824 919.517 139.701 904.157 139.701Z" fill="#D2C9FF" style="fill:#D2C9FF;fill:color(display-p3 0.8236 0.7889 1.0000);fill-opacity:1;"/>
<path d="M668.673 120.634H724.55V143.674C732.495 129.373 747.325 118.251 768.775 118.251C798.965 118.251 821.739 142.615 821.739 182.338C821.739 224.709 792.609 258.606 746.53 258.606C738.321 258.606 730.641 257.282 724.55 255.693V272.642C724.55 290.914 726.933 304.42 736.732 316.602H680.59V164.86C680.59 146.057 678.206 132.816 668.673 120.634ZM722.961 195.579C722.961 220.737 730.376 240.334 748.914 240.334C765.068 240.334 774.866 221.531 774.866 193.725C774.866 162.476 766.657 145.528 749.443 145.528C737.526 145.528 722.961 157.974 722.961 195.579Z" fill="#D2C9FF" style="fill:#D2C9FF;fill:color(display-p3 0.8236 0.7889 1.0000);fill-opacity:1;"/>
<path d="M626.759 100.767C615.107 100.767 600.277 89.3795 600.277 77.9922C600.277 66.34 615.107 54.4231 626.759 54.4231C638.146 54.4231 653.506 66.34 653.506 77.9922C653.506 89.3795 637.881 100.767 626.759 100.767ZM593.126 120.628H649.004V212.521C649.004 229.47 651.387 244.565 661.185 256.217H605.043V164.854C605.043 146.051 602.66 132.81 593.126 120.628Z" fill="#D2C9FF" style="fill:#D2C9FF;fill:color(display-p3 0.8236 0.7889 1.0000);fill-opacity:1;"/>
<path d="M462.245 166.184V147.646C472.308 131.757 493.494 118.251 518.917 118.251C558.11 118.251 576.118 139.437 576.118 173.069V212.527C576.118 231.065 579.031 244.571 588.3 256.223H532.423V235.567C525.008 246.954 510.972 258.341 488.992 258.341C465.688 258.341 451.388 245.63 451.388 224.974C451.388 205.112 464.629 193.195 494.818 185.78C523.684 178.365 532.423 176.512 532.423 163.8C532.423 152.943 522.624 148.441 507.794 148.441C490.581 148.441 473.897 156.12 463.04 166.184H462.245ZM494.553 219.677C494.553 227.887 499.32 235.302 509.648 235.302C521.3 235.302 532.423 224.974 532.423 204.053V191.606L511.767 199.021C501.704 203.523 494.553 209.085 494.553 219.677Z" fill="#D2C9FF" style="fill:#D2C9FF;fill:color(display-p3 0.8236 0.7889 1.0000);fill-opacity:1;"/>
<path d="M243.927 64.2185H306.425V148.432H380.045V106.855C380.045 88.8469 377.397 76.1355 367.863 64.2185H430.096V213.578C430.096 231.585 432.744 244.827 442.278 256.214H380.045V174.649H306.425V213.578C306.425 231.585 309.073 244.827 318.606 256.214H256.373V106.855C256.373 88.8469 253.725 76.1355 243.927 64.2185Z" fill="#D2C9FF" style="fill:#D2C9FF;fill:color(display-p3 0.8236 0.7889 1.0000);fill-opacity:1;"/>
</svg>

<svg xmlns="http://www.w3.org/2000/svg" width="1087" height="320" fill="none" viewBox="0 0 1087 320"><path fill="color(display-p3 .4824 .3804 1)" fill-rule="evenodd" d="M150.79 146.686c-22.827 0-41.343-18.505-41.343-41.343C109.447 82.516 127.952 64 150.79 64c22.838 0 41.343 18.516 41.343 41.343 0 22.827-18.516 41.343-41.343 41.343Zm41.318 66.506a42.183 42.183 0 0 0-12.41-29.864 42.36 42.36 0 0 0-13.739-9.152c-5.143-2.125-10.599-2.878-16.538-3.196-8.426-.451-17.901-1.871-25.769-4.256-8.057-2.443-14.938-7.736-20.887-13.663-5.949-5.938-10.98-12.895-13.706-20.832-2.736-7.966-3.672-17.699-4.25-26.029-.572-8.248-2.505-16.517-7.169-23.458a42.401 42.401 0 0 0-19.023-15.536c-7.725-3.204-16.234-4.02-24.45-2.386a42.42 42.42 0 0 0-21.67 11.592 42.186 42.186 0 0 0-11.56 21.65 42.126 42.126 0 0 0 2.44 24.394 42.235 42.235 0 0 0 15.624 18.936c6.709 4.455 15.183 6.553 23.534 7.082 8.761.555 17.861 1.716 26.106 4.206 8.059 2.433 14.937 7.735 20.886 13.662 5.949 5.938 10.972 12.898 13.707 20.832 2.71 7.862 3.994 17.648 4.216 26.029.169 6.363.97 11.146 3.062 16.332a42.094 42.094 0 0 0 9.141 13.892 42.446 42.446 0 0 0 13.805 9.304A42.456 42.456 0 0 0 149.79 256c5.6 0 11.157-1.111 16.332-3.269a42.195 42.195 0 0 0 13.805-9.304 42.094 42.094 0 0 0 9.141-13.892 42.132 42.132 0 0 0 3.061-16.332h-.021v-.011ZM.133 214.657C.133 237.495 18.65 256 41.476 256c22.828 0 41.343-18.516 41.343-41.343 0-22.827-18.515-41.343-41.343-41.343-22.827 0-41.343 18.516-41.343 41.343Z" clip-rule="evenodd"/><path fill="color(display-p3 .4824 .3804 1)" d="M985.602 256.22v-87.391c0-20.391-1.059-33.368-11.387-48.198h55.875v36.81c9.01-25.422 24.9-38.663 42.64-38.663 2.65 0 6.09.264 8.47 1.059l5.56 48.992h-1.59c-5.56-3.178-13.5-5.297-21.98-5.297-20.92 0-34.16 14.036-34.16 45.02 0 17.478 3.97 35.486 12.71 47.668h-56.138ZM964.272 231.065c-10.064 14.83-31.249 27.541-59.32 27.541-42.107 0-69.383-24.893-69.383-68.324 0-42.901 30.454-72.031 69.383-72.031 37.075 0 59.849 23.039 59.849 56.142 0 6.356.53 10.858 2.384 15.36h-85.538c2.119 24.363 15.095 40.252 41.577 40.252 15.625 0 27.807-4.766 41.048-14.565v15.625Zm-60.115-91.364c-11.387 0-20.921 9.799-22.774 33.368h45.019c-.265-22.245-6.885-33.368-22.245-33.368ZM668.673 120.634h55.877v23.04c7.945-14.301 22.775-25.423 44.225-25.423 30.19 0 52.964 24.364 52.964 64.087 0 42.371-29.13 76.268-75.209 76.268-8.209 0-15.889-1.324-21.98-2.913v16.949c0 18.272 2.383 31.778 12.182 43.96H680.59V164.86c0-18.803-2.384-32.044-11.917-44.226Zm54.288 74.945c0 25.158 7.415 44.755 25.953 44.755 16.154 0 25.952-18.803 25.952-46.609 0-31.249-8.209-48.197-25.423-48.197-11.917 0-26.482 12.446-26.482 50.051ZM626.759 100.767c-11.652 0-26.482-11.388-26.482-22.775 0-11.652 14.83-23.569 26.482-23.569 11.387 0 26.747 11.917 26.747 23.57 0 11.386-15.625 22.774-26.747 22.774Zm-33.633 19.861h55.878v91.893c0 16.949 2.383 32.044 12.181 43.696h-56.142v-91.364c0-18.802-2.383-32.043-11.917-44.225ZM462.245 166.184v-18.538c10.064-15.889 31.249-29.395 56.672-29.395 39.194 0 57.201 21.186 57.201 54.818v39.458c0 18.538 2.913 32.044 12.182 43.696h-55.877v-20.656c-7.415 11.387-21.451 22.774-43.431 22.774-23.304 0-37.604-12.711-37.604-33.367 0-19.862 13.241-31.779 43.43-39.194 28.866-7.415 37.605-9.268 37.605-21.98 0-10.857-9.798-15.359-24.628-15.359-17.214 0-33.898 7.679-44.755 17.743h-.795Zm32.309 53.493c0 8.21 4.766 15.625 15.094 15.625 11.652 0 22.775-10.328 22.775-31.249v-12.447l-20.656 7.415c-10.063 4.502-17.213 10.064-17.213 20.656ZM243.927 64.219h62.498v84.213h73.62v-41.577c0-18.008-2.648-30.72-12.182-42.636h62.233v149.359c0 18.007 2.648 31.249 12.182 42.636h-62.233v-81.565h-73.62v38.929c0 18.007 2.648 31.249 12.181 42.636h-62.233V106.855c0-18.008-2.648-30.72-12.446-42.636Z"/></svg>
